packages/merlin-www-assets/imports/brides/icons/figure-instagram.svg

<svg viewBox="0 0 16 16" xmlns="http://www.w3.org/2000/svg"><path d="m8 1.44h3.23a4.43 4.43 0 0 1 1.49.28 2.48 2.48 0 0 1 .92.6 2.48 2.48 0 0 1 .6.92 4.43 4.43 0 0 1 .28 1.49v6.46a4.43 4.43 0 0 1 -.28 1.49 2.65 2.65 0 0 1 -1.52 1.52 4.43 4.43 0 0 1 -1.49.28h-6.46a4.43 4.43 0 0 1 -1.49-.28 2.48 2.48 0 0 1 -.92-.6 2.48 2.48 0 0 1 -.6-.92 4.43 4.43 0 0 1 -.28-1.49v-6.46a4.43 4.43 0 0 1 .28-1.49 2.48 2.48 0 0 1 .6-.92 2.48 2.48 0 0 1 .92-.6 4.43 4.43 0 0 1 1.49-.28zm0-1.44h-3.3a5.87 5.87 0 0 0 -1.94.42 4 4 0 0 0 -2.34 2.34 5.87 5.87 0 0 0 -.42 1.94v6.6a5.87 5.87 0 0 0 .37 1.94 4 4 0 0 0 2.34 2.34 5.87 5.87 0 0 0 2 .42h6.6a5.87 5.87 0 0 0 1.94-.37 4.09 4.09 0 0 0 2.34-2.34 5.87 5.87 0 0 0 .42-2v-6.59a5.87 5.87 0 0 0 -.37-1.94 4 4 0 0 0 -2.4-2.34 5.87 5.87 0 0 0 -1.94-.42zm0 3.89a4.11 4.11 0 1 0 4.11 4.11 4.11 4.11 0 0 0 -4.11-4.11zm0 6.77a2.67 2.67 0 1 1 2.67-2.66 2.67 2.67 0 0 1 -2.67 2.67zm4.27-7.9a1 1 0 1 0 1 1 1 1 0 0 0 -1-1z"/></svg>

<svg id="share-instagram" xmlns="http://www.w3.org/2000/svg" viewBox="0 0 16 16"><title>share-instagram</title><path d="M8,1.44h3.23a4.43,4.43,0,0,1,1.49.28,2.48,2.48,0,0,1,.92.6,2.48,2.48,0,0,1,.6.92,4.43,4.43,0,0,1,.28,1.49v6.46a4.43,4.43,0,0,1-.28,1.49,2.65,2.65,0,0,1-1.52,1.52,4.43,4.43,0,0,1-1.49.28H4.77a4.43,4.43,0,0,1-1.49-.28,2.48,2.48,0,0,1-.92-0.6,2.48,2.48,0,0,1-.6-0.92,4.43,4.43,0,0,1-.28-1.49V4.73a4.43,4.43,0,0,1,.28-1.49,2.48,2.48,0,0,1,.6-0.92,2.48,2.48,0,0,1,.92-0.6,4.43,4.43,0,0,1,1.49-.28H8M8,0H4.7A5.87,5.87,0,0,0,2.76.42,4,4,0,0,0,.42,2.76,5.87,5.87,0,0,0,0,4.7v6.6a5.87,5.87,0,0,0,.37,1.94,4,4,0,0,0,2.34,2.34,5.87,5.87,0,0,0,2,.42h6.6a5.87,5.87,0,0,0,1.94-.37,4.09,4.09,0,0,0,2.34-2.34,5.87,5.87,0,0,0,.42-2V4.7a5.87,5.87,0,0,0-.37-1.94A4,4,0,0,0,13.24.42,5.87,5.87,0,0,0,11.3,0H8ZM8,3.89A4.11,4.11,0,1,0,12.11,8h0A4.11,4.11,0,0,0,8,3.89Zm0,6.77A2.67,2.67,0,1,1,10.67,8h0A2.67,2.67,0,0,1,8,10.67H8Zm4.27-7.9a1,1,0,1,0,1,1,1,1,0,0,0-1-1h0Z"/></svg>
